_cdn/img/vt-facebook.svg

<svg width="21" height="24" viewBox="0 0 21 24" fill="none" xmlns="http://www.w3.org/2000/svg">
<g clip-path="url(#clip0)">
<path d="M18.75 1.5H2.25C1.65326 1.5 1.08097 1.73705 0.65901 2.15901C0.237053 2.58097 0 3.15326 0 3.75L0 20.25C0 20.8467 0.237053 21.419 0.65901 21.841C1.08097 22.2629 1.65326 22.5 2.25 22.5H8.68359V15.3605H5.73047V12H8.68359V9.43875C8.68359 6.52547 10.418 4.91625 13.0744 4.91625C14.3466 4.91625 15.6769 5.14313 15.6769 5.14313V8.0025H14.2111C12.7669 8.0025 12.3164 8.89875 12.3164 9.81797V12H15.5405L15.0248 15.3605H12.3164V22.5H18.75C19.3467 22.5 19.919 22.2629 20.341 21.841C20.7629 21.419 21 20.8467 21 20.25V3.75C21 3.15326 20.7629 2.58097 20.341 2.15901C19.919 1.73705 19.3467 1.5 18.75 1.5V1.5Z" fill="#00C5FF"/>
</g>
<defs>
<clipPath id="clip0">
<rect width="21" height="24" fill="white"/>
</clipPath>
</defs>
</svg>

<svg width="21" height="24" fill="none" xmlns="http://www.w3.org/2000/svg"><g clip-path="url(#clip0)"><path d="M18.75 1.5H2.25A2.25 2.25 0 000 3.75v16.5a2.25 2.25 0 002.25 2.25h6.434v-7.14H5.73V12h2.954V9.439c0-2.914 1.734-4.523 4.39-4.523 1.273 0 2.603.227 2.603.227v2.86H14.21c-1.444 0-1.895.896-1.895 1.815V12h3.224l-.515 3.36h-2.709v7.14h6.434A2.25 2.25 0 0021 20.25V3.75a2.25 2.25 0 00-2.25-2.25z" fill="#00C5FF"/></g><defs><clipPath id="clip0"><path fill="#fff" d="M0 0h21v24H0z"/></clipPath></defs></svg>
